X: 2
T:The Humours of Ennistymon
M:6/8
L:1/8
R:dbl jig
H:See also Coppers and Brass, #31, The Queen of the Rushes, #6
Z:id:hn-jig-142
K:G
A| ~B3 GBd| cBc ABc| ~B3 GBd| cAG FGA|
~B3 GBd|cBc ABc|ded cAF| AGF G2:|
|: e|~f3 fed| cAG FGA| Ggg gfg| afd d2e|
~f3 fed|cAG FGA| (3Bcd B cAF| AGF G2:|
|: d|gdB gdB| ecA ecA| ~B3 GBd| cAG FGA|
|1 gdB gdB| ecA ecA| ~B3 GBd|cAF G2:|
|2 ~B3 GBd| cBc ABc| ded cAF| AGF G2||
